Apricity Icons/16/panel/weather-showers.svg

<svg xmlns="http://www.w3.org/2000/svg" width="16" height="16" version="1.1">
 <defs>
  <style id="current-color-scheme" type="text/css">
   .ColorScheme-Text { color:#dfdfdf; } .ColorScheme-Highlight { color:#4285f4; }
  </style>
 </defs>
 <path style="fill:currentColor" class="ColorScheme-Text" d="M 8,0.004 C 5.9289,0.004 4.1653,1.2719 3.4062,3.0665 1.4784,3.3531 0,4.9964 0,7.004 0,9.213 1.7909,11.004 4,11.004 H 12.5 C 14.433,11.004 16,9.437 16,7.504 16,5.7075 14.649,4.2353 12.906,4.0353 12.452,1.7419 10.427,0.004 8,0.004 Z M 2.9785,11.994 A 0.50005,0.50005 0 0 0 2.5527,12.277 L 1.5527,14.277 A 0.50025,0.50025 0 1 0 2.4473,14.725 L 3.4473,12.725 A 0.50005,0.50005 0 0 0 2.9785,11.994 Z M 5.4785,11.994 A 0.50005,0.50005 0 0 0 5.0527,12.277 L 4.0527,14.277 A 0.50025,0.50025 0 1 0 4.9473,14.725 L 5.9473,12.725 A 0.50005,0.50005 0 0 0 5.4785,11.994 Z M 7.979,11.994 A 0.50005,0.50005 0 0 0 7.553,12.277 L 6.5527,14.277 A 0.50012,0.50012 0 1 0 7.447,14.725 L 8.447,12.725 A 0.50005,0.50005 0 0 0 7.979,11.994 Z M 10.479,11.994 A 0.50005,0.50005 0 0 0 10.053,12.277 L 9.053,14.277 A 0.50006,0.50006 0 1 0 9.947,14.725 L 10.947,12.725 A 0.50005,0.50005 0 0 0 10.479,11.994 Z M 12.979,11.994 A 0.50005,0.50005 0 0 0 12.553,12.277 L 11.553,14.277 A 0.50006,0.50006 0 1 0 12.447,14.725 L 13.447,12.725 A 0.50005,0.50005 0 0 0 12.979,11.994 Z"/>
</svg>

<svg height="16" width="16" xmlns="http://www.w3.org/2000/svg"><g fill="#dfdfdf"><path d="M2.977 11.994a.5.5 0 0 0-.424.281l-1 2a.5.5 0 1 0 .895.448l1-2a.5.5 0 0 0-.471-.729zM5.477 11.994a.5.5 0 0 0-.424.281l-1 2a.5.5 0 1 0 .895.448l1-2a.5.5 0 0 0-.471-.729zM7.977 11.994a.5.5 0 0 0-.424.281l-1 2a.5.5 0 1 0 .895.448l1-2a.5.5 0 0 0-.471-.729zM10.477 11.994a.5.5 0 0 0-.424.281l-1 2a.5.5 0 1 0 .895.448l1-2a.5.5 0 0 0-.471-.729zM12.977 11.994a.5.5 0 0 0-.424.281l-1 2a.5.5 0 1 0 .895.448l1-2a.5.5 0 0 0-.471-.729z" style="line-height:normal;text-indent:0;text-align:start;text-decoration-line:none;text-decoration-style:solid;text-decoration-color:#000;text-transform:none;block-progression:tb;white-space:normal;isolation:auto;mix-blend-mode:normal;solid-color:#000;solid-opacity:1" color="#000" font-weight="400" font-family="sans-serif" overflow="visible" stroke-linecap="round"/><path d="M8 .003c-2.071 0-3.835 1.268-4.594 3.063A3.981 3.981 0 0 0 0 7.003a4 4 0 0 0 4 4h8.5a3.5 3.5 0 0 0 3.5-3.5 3.49 3.49 0 0 0-3.094-3.468A5.011 5.011 0 0 0 8 .003z"/></g></svg>
